vendor/shopware/storefront/Resources/app/storefront/dist/assets/icon/solid/arrow-external.svg

<svg xmlns="http://www.w3.org/2000/svg" width="16" height="16" viewBox="0 0 16 16">
  <path fill="#758CA3" fill-rule="evenodd" d="M12.5857864,2 L10,2 C9.44771525,2 9,1.55228475 9,1 C9,0.44771525 9.44771525,0 10,0 L15,0 C15.5522847,0 16,0.44771525 16,1 L16,6 C16,6.55228475 15.5522847,7 15,7 C14.4477153,7 14,6.55228475 14,6 L14,3.41421356 L7.20710678,10.2071068 C6.81658249,10.5976311 6.18341751,10.5976311 5.79289322,10.2071068 C5.40236893,9.81658249 5.40236893,9.18341751 5.79289322,8.79289322 L12.5857864,2 Z M6,1 C6.55228475,1 7,1.44771525 7,2 C7,2.55228475 6.55228475,3 6,3 L3,3 C2.44771525,3 2,3.44771525 2,4 L2,13 C2,13.5522847 2.44771525,14 3,14 L11.9673236,14 C12.5153749,14 12.9613171,13.5588713 12.9672647,13.0108522 L13.0000589,9.98914776 C13.0060524,9.43689554 13.4586,8.99406536 14.0108522,9.00005889 C14.5631045,9.00605241 15.0059346,9.45860001 14.9999411,10.0108522 L14.9671469,13.0325567 C14.9493042,14.6766139 13.6114776,16 11.9673236,16 L3,16 C1.34314575,16 -2.77555756e-16,14.6568542 -4.4408921e-16,13 L0,4 C-1.66533454e-16,2.34314575 1.34314575,1 3,1 L6,1 Z"/>
</svg>

<svg xmlns="http://www.w3.org/2000/svg" width="16" height="16" viewBox="0 0 16 16"><path fill="#758CA3" fill-rule="evenodd" d="M12.5858 2H10c-.5523 0-1-.4477-1-1s.4477-1 1-1h5c.5523 0 1 .4477 1 1v5c0 .5523-.4477 1-1 1s-1-.4477-1-1V3.4142l-6.7929 6.793c-.3905.3904-1.0237.3904-1.4142 0-.3905-.3906-.3905-1.0238 0-1.4143L12.5858 2zM6 1c.5523 0 1 .4477 1 1s-.4477 1-1 1H3c-.5523 0-1 .4477-1 1v9c0 .5523.4477 1 1 1h8.9673a1 1 0 0 0 1-.9891L13 9.989c.006-.5522.4585-.995 1.0108-.989.5522.006.995.4585.989 1.0108l-.0328 3.0217C14.9493 14.6766 13.6115 16 11.9673 16H3c-1.6569 0-3-1.3431-3-3V4c0-1.6569 1.3431-3 3-3h3z"/></svg>
